X: 1
T:Constant Billy
M:6/8
C:
S:Bacon (MDT)
N:transposed from A to G
A:Adderbury
O:English
R:Jig
%P:A/2(AB)$^6$
P:A.(AB)6
%:
%:
K:G
I:speed 600
P:A
|: D | G2 d B<GB | c2 A  F2 D | B>AG E2 D | DEF G2             :|\
%
%
P:B
   z | Bcd  e3   | ABc   d3   | Bcd  e3   | ABc d2 (3d/2e/2f/2 |\
       g2 d B<GB | c2 A  F2 D | B>AG E2 D | DEF G2             ||
